X:1
T:Soll’s Sein, CMD
T:Soll’s Sein, CMD
T:Munich, Germany, 1637
T:Public Domain Courtesy of the Cyber Hymnal™
C:Munich, Germany, 1637
Z:Public Domain
Z:Courtesy of the Cyber Hymnal™
%%score ( 1 2 ) ( 3 4 )
L:1/8
M:3/4
K:F
V:1 treble 
V:2 treble 
V:3 bass 
V:4 bass 
V:1
|: [FA]2 [Cc]2 B2 | [FA]4 [CG]2 | [DF]4 [DG]2 | [CE]4 [CE]2 | ([CF]2 [EG]2) [FA]2 | [FB]2 G4 | %6
 F6 :| [D^F]2 [DF]2 [DG]2 | [DA]4 [Dd]2 | [DB]4 [Gc]2 | [^FA]4 [DF]2 | ([DG]2 [^FA]2) [GB]2 | %12
 [Gc]4 [^FA]2 | G6 | [FA]2 [Gc]2 B2 | [FA]4 [CG]2 | [DF]4 [DG]2 | [CE]4 [CE]2 | [CF]2 G2 [FA]2 | %19
 [FB]2 G4 | !fermata!F6 |] %21
V:2
|: x4 (DE) | x6 | x6 | x6 | x6 | x2 (F2 E2) | F6 :| x6 | x6 | x6 | x6 | x6 | x6 | G6 | x4 (DE) | %15
 x6 | x6 | x6 | x2 DE x2 | x2 (F2 E2) | F6 |] %21
V:3
|: [F,C]2 A,2 [G,B,]2 | [F,C]4 [E,G,]2 | A,4 [=B,,G,]2 | [C,G,]4 [B,,G,]2 | %4
 ([A,,F,]2 [G,,B,]2) [F,,C]2 | [B,,D]2 [C,C]4 | [F,,A,]6 :| [D,A,]2 [D,A,]2 [B,,G,]2 | %8
 (G,2 ^F,2) [F,A,]2 | [G,B,]4 [C,_E]2 | [D,D]4 [CD]2 | ([B,D]2 [A,C]2) [G,D]2 | [C,_E]4 [D,D]2 | %13
 [G,B,]6 | [D,D]2 [E,G,]2 [G,B,]2 | [F,C]4 [E,C]2 | A,4 [=B,,G,]2 | [C,G,]4 [B,,G,]2 | %18
 [A,,F,]2 ([G,,B,]2 [F,,C]2) | [B,,D]2 [C,C]4 | !fermata![F,,A,]6 |] %21
V:4
|: x2 A,2 x2 | x6 | (D,2 C,2) x2 | x6 | x6 | x6 | x6 :| x6 | D,4 x2 | x6 | x6 | x6 | x6 | x6 | x6 | %15
 x6 | (D,2 C,2) x2 | x6 | x6 | x6 | x6 |] %21

